src/client/model.svg

<?xml version="1.0" encoding="UTF-8"?>
<svg width="1305px" height="506px" viewBox="0 0 1305 506" version="1.1" xmlns="http://www.w3.org/2000/svg" xmlns:xlink="http://www.w3.org/1999/xlink">
    <!-- Generator: Sketch 55.2 (78181) - https://sketchapp.com -->
    <title>mv</title>
    <desc>Created with Sketch.</desc>
    <g id="Page-1" stroke="none" stroke-width="1" fill="none" fill-rule="evenodd">
        <g id="Group" transform="translate(-1.000000, 177.000000)">
            <rect id="Rectangle" stroke="#979797" fill="#D8D8D8" x="0.5" y="0.5" width="165" height="119" rx="8"></rect>
            <rect id="Rectangle-Copy" stroke="#979797" fill="#D8D8D8" x="0.5" y="0.5" width="165" height="119" rx="8"></rect>
            <path d="M0.5,30.5 L165.5,30.5 L165.5,8 C165.5,3.85786438 162.142136,0.5 158,0.5 L9,0.5 C4.30557963,0.5 0.5,4.30557963 0.5,9 L0.5,30.5 Z" id="Rectangle-Copy-6" stroke="#979797" fill="#B4B4B4"></path>
            <text id="Split-shipments" font-family="LucidaGrande, Lucida Grande" font-size="15" font-weight="normal" fill="#000000">
                <tspan x="27" y="21">Split</tspan>
                <tspan x="58.8017578" y="21" font-family="Muna"> </tspan>
                <tspan x="62.5957031" y="21">shipments</tspan>
            </text>
            <text id="Total" font-family="LucidaGrande, Lucida Grande" font-size="13" font-weight="normal" fill="#000000">
                <tspan x="8" y="52">Total</tspan>
            </text>
            <text id="Old" font-family="LucidaGrande, Lucida Grande" font-size="13" font-weight="normal" fill="#000000">
                <tspan x="8" y="76">Old</tspan>
            </text>
            <text id="New" font-family="LucidaGrande, Lucida Grande" font-size="13" font-weight="normal" fill="#000000">
                <tspan x="8" y="100">New</tspan>
            </text>
        </g>
        <g id="Group-2" transform="translate(265.000000, 177.000000)">
            <rect id="Rectangle-Copy-2" stroke="#979797" fill="#D8D8D8" x="0.5" y="0.5" width="165" height="119" rx="8"></rect>
            <path d="M0.5,30.5 L165.5,30.5 L165.5,8 C165.5,3.85786438 162.142136,0.5 158,0.5 L9,0.5 C4.30557963,0.5 0.5,4.30557963 0.5,9 L0.5,30.5 Z" id="Rectangle-Copy-7" stroke="#979797" fill="#B4B4B4"></path>
            <text id="Pallets-old" font-family="LucidaGrande, Lucida Grande" font-size="13" font-weight="normal" fill="#000000">
                <tspan x="12" y="65">Pallets old</tspan>
            </text>
            <text id="Pallets-new" font-family="LucidaGrande, Lucida Grande" font-size="13" font-weight="normal" fill="#000000">
                <tspan x="12" y="92">Pallets new</tspan>
            </text>
            <text id="Unload-shipments" font-family="LucidaGrande, Lucida Grande" font-size="15" font-weight="normal" fill="#000000">
                <tspan x="18" y="21">Unload</tspan>
                <tspan x="68.9765625" y="21" font-family="Muna"> </tspan>
                <tspan x="72.7705078" y="21">shipments</tspan>
            </text>
        </g>
        <g id="Group-3" transform="translate(880.000000, 177.000000)">
            <rect id="Rectangle-Copy-3" stroke="#979797" fill="#D8D8D8" x="0.5" y="0.5" width="165" height="119" rx="8"></rect>
            <path d="M0.5,30.5 L165.5,30.5 L165.5,8 C165.5,3.85786438 162.142136,0.5 158,0.5 L9,0.5 C4.30557963,0.5 0.5,4.30557963 0.5,9 L0.5,30.5 Z" id="Rectangle-Copy-8" stroke="#979797" fill="#B4B4B4"></path>
            <text id="Process-waves" font-family="LucidaGrande, Lucida Grande" font-size="15" font-weight="normal" fill="#000000">
                <tspan x="31" y="22">Process waves</tspan>
            </text>
        </g>
        <g id="Group-6" transform="translate(547.000000, 253.000000)">
            <rect id="Rectangle-Copy-5" stroke="#617B83" fill="#A7CDD8" x="0.5" y="0.5" width="224" height="151" rx="8"></rect>
            <rect id="Rectangle-Copy-15" stroke="#536D80" x="10.5" y="42.5" width="98" height="93" rx="8"></rect>
            <rect id="Rectangle-Copy-16" stroke="#536D80" x="118.5" y="42.5" width="98" height="93" rx="8"></rect>
            <path d="M0.5,30.5 L224.5,30.5 L224.5,8 C224.5,3.85786438 221.142136,0.5 217,0.5 L9,0.5 C4.30557963,0.5 0.5,4.30557963 0.5,9 L0.5,30.5 Z" id="Rectangle-Copy-11" stroke="#50676D" fill="#87A8B1"></path>
            <text id="Pallet-Copy" font-family="LucidaGrande, Lucida Grande" font-size="13" font-weight="normal" fill="#000000">
                <tspan x="41" y="55">Pallet</tspan>
            </text>
            <g id="Group-5" transform="translate(16.000000, 68.000000)" fill="#000000" font-family="LucidaGrande, Lucida Grande" font-weight="normal">
                <text id="¼" font-size="13">
                    <tspan x="0" y="13">¼</tspan>
                </text>
                <text id="½" font-size="13">
                    <tspan x="0" y="34">½</tspan>
                </text>
                <text id="full" font-size="11">
                    <tspan x="0" y="54">full</tspan>
                </text>
            </g>
            <text id="Shuttle" font-family="LucidaGrande, Lucida Grande" font-size="13" font-weight="normal" fill="#000000">
                <tspan x="149" y="58">Shuttle</tspan>
            </text>
            <text id="NEW" font-family="LucidaGrande, Lucida Grande" font-size="15" font-weight="normal" fill="#000000">
                <tspan x="95" y="22">NEW</tspan>
            </text>
        </g>
        <g id="Group-7" transform="translate(547.000000, 70.000000)">
            <rect id="Rectangle-Copy-10" stroke="#617F75" fill="#A2D1C2" x="0.5" y="0.5" width="224" height="151" rx="8"></rect>
            <rect id="Rectangle-Copy-14" stroke="#617F75" x="10.5" y="42.5" width="206" height="93" rx="8"></rect>
            <path d="M0.5,30.5 L224.5,30.5 L224.5,8 C224.5,3.85786438 221.142136,0.5 217,0.5 L9,0.5 C4.30557963,0.5 0.5,4.30557963 0.5,9 L0.5,30.5 Z" id="Rectangle-Copy-12" stroke="#4F6960" fill="#84B1A2"></path>
            <text id="Pallet" font-family="LucidaGrande, Lucida Grande" font-size="13" font-weight="normal" fill="#000000">
                <tspan x="94" y="58">Pallet</tspan>
            </text>
            <text id="¼" font-family="LucidaGrande, Lucida Grande" font-size="13" font-weight="normal" fill="#000000">
                <tspan x="17" y="81">¼</tspan>
            </text>
            <text id="½" font-family="LucidaGrande, Lucida Grande" font-size="13" font-weight="normal" fill="#000000">
                <tspan x="17" y="102">½</tspan>
            </text>
            <text id="full" font-family="LucidaGrande, Lucida Grande" font-size="11" font-weight="normal" fill="#000000">
                <tspan x="17" y="123">full</tspan>
            </text>
            <text id="OLD" font-family="LucidaGrande, Lucida Grande" font-size="15" font-weight="normal" fill="#000000">
                <tspan x="97" y="22">OLD</tspan>
            </text>
        </g>
        <g id="Group-4" transform="translate(1154.000000, 177.000000)">
            <rect id="Rectangle-Copy-4" stroke="#979797" fill="#D8D8D8" x="0.5" y="0.5" width="165" height="119" rx="8"></rect>
            <text id="E-comm" font-family="LucidaGrande, Lucida Grande" font-size="13" font-weight="normal" fill="#000000">
                <tspan x="11" y="55">E-comm</tspan>
            </text>
            <text id="Retail" font-family="LucidaGrande, Lucida Grande" font-size="13" font-weight="normal" fill="#000000">
                <tspan x="11" y="78">Retail</tspan>
            </text>
            <text id="Wholesale" font-family="LucidaGrande, Lucida Grande" font-size="13" font-weight="normal" fill="#000000">
                <tspan x="11" y="101">Wholesale</tspan>
            </text>
            <path d="M0.5,30.5 L165.5,30.5 L165.5,8 C165.5,3.85786438 162.142136,0.5 158,0.5 L9,0.5 C4.30557963,0.5 0.5,4.30557963 0.5,9 L0.5,30.5 Z" id="Rectangle-Copy-9" stroke="#979797" fill="#B4B4B4"></path>
            <text id="Split-orders" font-family="LucidaGrande, Lucida Grande" font-size="15" font-weight="normal" fill="#000000">
                <tspan x="41" y="22">Split orders</tspan>
            </text>
        </g>
        <g id="Group-5-Copy" transform="translate(568.000000, 61.000000)"></g>
        <g id="variables" transform="translate(55.000000, 138.000000)" fill="#000000" font-family="LucidaGrande, Lucida Grande" font-size="13" font-weight="normal">
            <text id="phase_1_total">
                <tspan x="0" y="90">-</tspan>
            </text>
            <text id="phase_1_old">
                <tspan x="0" y="113">-</tspan>
            </text>
            <text id="phase_1_new">
                <tspan x="0" y="136">-</tspan>
            </text>
            <text id="phase_2_old">
                <tspan x="322" y="103">-</tspan>
            </text>
            <text id="phase_2_new">
                <tspan x="322" y="129">-</tspan>
            </text>
            <text id="phase_3_new_qtr">
                <tspan x="538" y="195">-</tspan>
            </text>
            <text id="phase_3_new_hlf">
                <tspan x="538" y="214">-</tspan>
            </text>
            <text id="phase_3_new_full">
                <tspan x="538" y="233">-</tspan>
            </text>
            <text id="phase_3_new_shuttle">
                <tspan x="655" y="195">-</tspan>
            </text>
            <text id="phase_3_ecomm">
                <tspan x="1186" y="91">-</tspan>
            </text>
            <text id="phase_3_retail">
                <tspan x="1186" y="115">-</tspan>
            </text>
            <text id="phase_3_wholesale">
                <tspan x="1186" y="140">-</tspan>
            </text>
            <text id="phase_3_old_qtr">
                <tspan x="538" y="13">-</tspan>
            </text>
            <text id="phase_3_old_hlf">
                <tspan x="538" y="32">-</tspan>
            </text>
            <text id="phase_3_old_full">
                <tspan x="538" y="54">-</tspan>
            </text>
        </g>
        <g id="arrows" transform="translate(179.000000, 240.000000)" fill="#605F5F" fill-rule="nonzero">
            <path id="arrow_1_2" d="M51.5136719,3 L-1.5,3 L-1.5,-1 L51.5136719,-1 L51.5136719,-11 L75.5136719,1 L51.5136719,13 L51.5136719,3 Z"></path>
            <path id="arrow_2_3" d="M328.020508,3 L275.006836,3 L275.006836,-1 L328.020508,-1 L328.020508,-11 L352.020508,1 L328.020508,13 L328.020508,3 Z"></path>
            <path id="arrow_5_6" d="M659.020508,3 L606.006836,3 L606.006836,-1 L659.020508,-1 L659.020508,-11 L683.020508,1 L659.020508,13 L659.020508,3 Z"></path>
            <path id="arrow_4_5" d="M938.020508,3 L885.006836,3 L885.006836,-1 L938.020508,-1 L938.020508,-11 L962.020508,1 L938.020508,13 L938.020508,3 Z"></path>
        </g>
    </g>
</svg>

<?xml version="1.0"?>
<svg width="1305" height="506" xmlns="http://www.w3.org/2000/svg" xmlns:svg="http://www.w3.org/2000/svg">
 <!-- Generator: Sketch 55.2 (78181) - https://sketchapp.com -->
 <title>mv</title>
 <desc>Created with Sketch.</desc>
 <g class="layer">
  <title>Layer 1</title>
  <g fill="none" fill-rule="evenodd" id="Page-1">
   <g id="Group" transform="translate(-1.000000, 177.000000)">
    <rect fill="#D8D8D8" height="119" id="Rectangle" rx="8" stroke="#979797" width="165" x="0.5" y="0.5"/>
    <rect fill="#D8D8D8" height="119" id="Rectangle-Copy" rx="8" stroke="#979797" width="165" x="0.5" y="0.5"/>
    <path d="m0.5,30.5l165,0l0,-22.5c0,-4.14214 -3.35786,-7.5 -7.5,-7.5l-149,0c-4.69442,0 -8.5,3.80558 -8.5,8.5l0,21.5z" fill="#B4B4B4" id="Rectangle-Copy-6" stroke="#979797"/>
    <text fill="#000000" font-family="LucidaGrande, Lucida Grande" font-size="15" font-weight="normal" id="Split-shipments">
     <tspan id="svg_1" x="27" y="21">Split</tspan>
     <tspan font-family="Muna" id="svg_2" x="58.801758" y="21"/>
     <tspan id="svg_3" x="62.595703" y="21">shipments</tspan>
    </text>
    <text fill="#000000" font-family="LucidaGrande, Lucida Grande" font-size="13" font-weight="normal" id="Total">
     <tspan id="svg_4" x="8" y="52">Total</tspan>
    </text>
    <text fill="#000000" font-family="LucidaGrande, Lucida Grande" font-size="13" font-weight="normal" id="Old">
     <tspan id="svg_5" x="8" y="76">Old</tspan>
    </text>
    <text fill="#000000" font-family="LucidaGrande, Lucida Grande" font-size="13" font-weight="normal" id="New">
     <tspan id="svg_6" x="8" y="100">New</tspan>
    </text>
   </g>
   <g id="Group-2" transform="translate(265.000000, 177.000000)">
    <rect fill="#D8D8D8" height="119" id="Rectangle-Copy-2" rx="8" stroke="#979797" width="165" x="0.5" y="0.5"/>
    <path d="m0.5,30.5l165,0l0,-22.5c0,-4.14214 -3.35786,-7.5 -7.5,-7.5l-149,0c-4.69442,0 -8.5,3.80558 -8.5,8.5l0,21.5z" fill="#B4B4B4" id="Rectangle-Copy-7" stroke="#979797"/>
    <text fill="#000000" font-family="LucidaGrande, Lucida Grande" font-size="13" font-weight="normal" id="Pallets-old">
     <tspan id="svg_7" x="12" y="65">Pallets old</tspan>
    </text>
    <text fill="#000000" font-family="LucidaGrande, Lucida Grande" font-size="13" font-weight="normal" id="Pallets-new">
     <tspan id="svg_8" x="12" y="92">Pallets new</tspan>
    </text>
    <text fill="#000000" font-family="LucidaGrande, Lucida Grande" font-size="15" font-weight="normal" id="Unload-shipments">
     <tspan id="svg_9" x="18" y="21">Unload</tspan>
     <tspan font-family="Muna" id="svg_10" x="68.976563" y="21"/>
     <tspan id="svg_11" x="72.770508" y="21">shipments</tspan>
    </text>
   </g>
   <g id="Group-3" transform="translate(880.000000, 177.000000)">
    <rect fill="#D8D8D8" height="119" id="Rectangle-Copy-3" rx="8" stroke="#979797" width="165" x="0.5" y="0.5"/>
    <path d="m0.5,30.5l165,0l0,-22.5c0,-4.14214 -3.35786,-7.5 -7.5,-7.5l-149,0c-4.69442,0 -8.5,3.80558 -8.5,8.5l0,21.5z" fill="#B4B4B4" id="Rectangle-Copy-8" stroke="#979797"/>
    <text fill="#000000" font-family="LucidaGrande, Lucida Grande" font-size="15" font-weight="normal" id="Process-waves">
     <tspan id="svg_12" x="31" y="22">Process waves</tspan>
    </text>
   </g>
   <g id="Group-6" transform="translate(547.000000, 253.000000)">
    <rect fill="#A7CDD8" height="151" id="Rectangle-Copy-5" rx="8" stroke="#617B83" width="224" x="0.5" y="0.5"/>
    <rect height="93" id="Rectangle-Copy-15" rx="8" stroke="#536D80" width="98" x="10.5" y="42.5"/>
    <rect height="93" id="Rectangle-Copy-16" rx="8" stroke="#536D80" width="98" x="118.5" y="42.5"/>
    <path d="m0.5,30.5l224,0l0,-22.5c0,-4.14214 -3.35786,-7.5 -7.5,-7.5l-208,0c-4.69442,0 -8.5,3.80558 -8.5,8.5l0,21.5z" fill="#87A8B1" id="Rectangle-Copy-11" stroke="#50676D"/>
    <text fill="#000000" font-family="LucidaGrande, Lucida Grande" font-size="13" font-weight="normal" id="Pallet-Copy">
     <tspan id="svg_13" x="41" y="55">Pallet</tspan>
    </text>
    <g fill="#000000" font-family="LucidaGrande, Lucida Grande" font-weight="normal" id="Group-5" transform="translate(16.000000, 68.000000)">
     <text font-size="13" id="¼">
      <tspan id="svg_14" x="0" y="13">¼</tspan>
     </text>
     <text font-size="13" id="½">
      <tspan id="svg_15" x="0" y="34">½</tspan>
     </text>
     <text font-size="11" id="full">
      <tspan id="svg_16" x="0" y="54">full</tspan>
     </text>
    </g>
    <text fill="#000000" font-family="LucidaGrande, Lucida Grande" font-size="13" font-weight="normal" id="Shuttle">
     <tspan id="svg_17" x="149" y="58">Shuttle</tspan>
    </text>
    <text fill="#000000" font-family="LucidaGrande, Lucida Grande" font-size="15" font-weight="normal" id="NEW">
     <tspan id="svg_18" x="95" y="22">NEW</tspan>
    </text>
   </g>
   <g id="Group-7" transform="translate(547.000000, 70.000000)">
    <rect fill="#A2D1C2" height="151" id="Rectangle-Copy-10" rx="8" stroke="#617F75" width="224" x="0.5" y="0.5"/>
    <rect height="93" id="Rectangle-Copy-14" rx="8" stroke="#617F75" width="206" x="10.5" y="42.5"/>
    <path d="m0.5,30.5l224,0l0,-22.5c0,-4.14214 -3.35786,-7.5 -7.5,-7.5l-208,0c-4.69442,0 -8.5,3.80558 -8.5,8.5l0,21.5z" fill="#84B1A2" id="Rectangle-Copy-12" stroke="#4F6960"/>
    <text fill="#000000" font-family="LucidaGrande, Lucida Grande" font-size="13" font-weight="normal" id="Pallet">
     <tspan id="svg_19" x="94" y="58">Pallet</tspan>
    </text>
    <text fill="#000000" font-family="LucidaGrande, Lucida Grande" font-size="13" font-weight="normal" id="¼">
     <tspan id="svg_20" x="17" y="81">¼</tspan>
    </text>
    <text fill="#000000" font-family="LucidaGrande, Lucida Grande" font-size="13" font-weight="normal" id="½">
     <tspan id="svg_21" x="17" y="102">½</tspan>
    </text>
    <text fill="#000000" font-family="LucidaGrande, Lucida Grande" font-size="11" font-weight="normal" id="full">
     <tspan id="svg_22" x="17" y="123">full</tspan>
    </text>
    <text fill="#000000" font-family="LucidaGrande, Lucida Grande" font-size="15" font-weight="normal" id="OLD">
     <tspan id="svg_23" x="97" y="22">OLD</tspan>
    </text>
   </g>
   <g id="Group-4" transform="translate(1154.000000, 177.000000)">
    <rect fill="#D8D8D8" height="119" id="Rectangle-Copy-4" rx="8" stroke="#979797" width="165" x="0.5" y="0.5"/>
    <text fill="#000000" font-family="LucidaGrande, Lucida Grande" font-size="13" font-weight="normal" id="E-comm">
     <tspan id="svg_24" x="11" y="55">E-comm</tspan>
    </text>
    <text fill="#000000" font-family="LucidaGrande, Lucida Grande" font-size="13" font-weight="normal" id="Retail">
     <tspan id="svg_25" x="11" y="78">Retail</tspan>
    </text>
    <text fill="#000000" font-family="LucidaGrande, Lucida Grande" font-size="13" font-weight="normal" id="Wholesale">
     <tspan id="svg_26" x="11" y="101">Wholesale</tspan>
    </text>
    <path d="m0.5,30.5l165,0l0,-22.5c0,-4.14214 -3.35786,-7.5 -7.5,-7.5l-149,0c-4.69442,0 -8.5,3.80558 -8.5,8.5l0,21.5z" fill="#B4B4B4" id="Rectangle-Copy-9" stroke="#979797"/>
    <text fill="#000000" font-family="LucidaGrande, Lucida Grande" font-size="15" font-weight="normal" id="Split-orders">
     <tspan id="svg_27" x="41" y="22">Split orders</tspan>
    </text>
   </g>
   <g id="Group-5-Copy" transform="translate(568.000000, 61.000000)"/>
   <g fill="#000000" font-family="LucidaGrande, Lucida Grande" font-size="13" font-weight="normal" id="variables" transform="translate(55.000000, 138.000000)">
    <text id="phase_1_total">
     <tspan id="svg_28" x="0" y="90">-</tspan>
    </text>
    <text id="phase_1_old">
     <tspan id="svg_29" x="0" y="113">-</tspan>
    </text>
    <text id="phase_1_new">
     <tspan id="svg_30" x="0" y="136">-</tspan>
    </text>
    <text id="phase_2_old">
     <tspan id="svg_31" x="322" y="103">-</tspan>
    </text>
    <text id="phase_2_new">
     <tspan id="svg_32" x="322" y="129">-</tspan>
    </text>
    <text id="phase_3_new_qtr">
     <tspan id="svg_33" x="538" y="195">-</tspan>
    </text>
    <text id="phase_3_new_hlf">
     <tspan id="svg_34" x="538" y="214">-</tspan>
    </text>
    <text id="phase_3_new_full">
     <tspan id="svg_35" x="538" y="233">-</tspan>
    </text>
    <text id="phase_3_new_shuttle">
     <tspan id="svg_36" x="655" y="195">-</tspan>
    </text>
    <text id="phase_3_ecomm">
     <tspan id="svg_37" x="1186" y="91">-</tspan>
    </text>
    <text id="phase_3_retail">
     <tspan id="svg_38" x="1186" y="115">-</tspan>
    </text>
    <text id="phase_3_wholesale">
     <tspan id="svg_39" x="1186" y="140">-</tspan>
    </text>
    <text id="phase_3_old_qtr">
     <tspan id="svg_40" x="538" y="13">-</tspan>
    </text>
    <text id="phase_3_old_hlf">
     <tspan id="svg_41" x="538" y="32">-</tspan>
    </text>
    <text id="phase_3_old_full">
     <tspan id="svg_42" x="538" y="54">-</tspan>
    </text>
	<text id="phase_3_old_resid">
     <tspan id="svg_40" x="600" y="13">-</tspan>
    </text>
   </g>
   <g fill="#605F5F" fill-rule="nonzero" id="arrows" transform="translate(179.000000, 240.000000)">
    <path d="m51.51367,3l-53.01367,0l0,-4l53.01367,0l0,-10l24,12l-24,12l0,-10z" id="arrow_1_2"/>
    <path d="m328.02051,3l-53.01367,0l0,-4l53.01367,0l0,-10l24,12l-24,12l0,-10z" id="arrow_2_3"/>
    <path d="m659.02051,3l-53.01367,0l0,-4l53.01367,0l0,-10l24,12l-24,12l0,-10z" id="arrow_5_6"/>
    <path d="m938.02051,3l-53.01367,0l0,-4l53.01367,0l0,-10l24,12l-24,12l0,-10z" id="arrow_4_5"/>
   </g>
  </g>
 </g>
</svg>
